icons/globe-fill.svg

<svg viewBox="0 0 24 24" fill="currentColor" xmlns="http://www.w3.org/2000/svg">
    <path d="M13.0003 21H18.0003V23H6.00032V21H11.0003V19.9506C7.70689 19.6236 4.88351 17.6987 3.31641 14.9622L5.05319 13.9697C6.43208 16.3776 9.02674 18 12.0003 18C16.4186 18 20.0003 14.4182 20.0003 9.99995C20.0003 7.02637 18.378 4.43171 15.9701 3.05282L16.9626 1.31604C19.9724 3.03965 22.0003 6.28297 22.0003 9.99995C22.0003 15.1853 18.0536 19.4489 13.0003 19.9506V21ZM12.0003 17C8.13433 17 5.00032 13.8659 5.00032 9.99995C5.00032 6.13396 8.13433 2.99995 12.0003 2.99995C15.8663 2.99995 19.0003 6.13396 19.0003 9.99995C19.0003 13.8659 15.8663 17 12.0003 17Z"/>
</svg>

<svg xmlns="http://www.w3.org/2000/svg" viewBox="0 0 24 24">
    <g>
        <path fill="none" d="M0 0h24v24H0z"/>
        <path d="M13 21h5v2H6v-2h5v-1.05a10.002 10.002 0 0 1-7.684-4.988l1.737-.992A8 8 0 1 0 15.97 3.053l.992-1.737A9.996 9.996 0 0 1 22 10c0 5.185-3.947 9.449-9 9.95V21zm-1-4a7 7 0 1 1 0-14 7 7 0 0 1 0 14z"/>
    </g>
</svg>
